updated-assets/images/npd.svg

<svg width="32" height="32" viewBox="0 0 32 32" fill="none" xmlns="http://www.w3.org/2000/svg">
<path d="M13.9998 0.145508C13.9342 0.145508 13.8692 0.158466 13.8085 0.183626C13.7479 0.208785 13.6928 0.245631 13.6465 0.292109C13.6001 0.338587 13.5634 0.393765 13.5383 0.454462C13.5133 0.51516 13.5005 0.58022 13.5007 0.645869V3.44585C12.3333 3.71706 11.2181 4.17723 10.1991 4.80814L8.22209 2.83107C8.17573 2.78469 8.1207 2.74783 8.06012 2.72273C7.99954 2.69763 7.93462 2.68484 7.86904 2.68484C7.80347 2.68484 7.73854 2.69763 7.67797 2.72273C7.61739 2.74783 7.56235 2.78469 7.516 2.83107L4.68556 5.66144C4.63918 5.70779 4.60239 5.76285 4.57729 5.82342C4.55219 5.884 4.53927 5.94896 4.53927 6.01453C4.53927 6.0801 4.55219 6.14506 4.57729 6.20564C4.60239 6.26622 4.63918 6.32127 4.68556 6.36762L6.66626 8.34826C6.03402 9.36579 5.57223 10.4797 5.29913 11.6462H2.49913C2.36675 11.6462 2.2398 11.6988 2.14619 11.7924C2.05259 11.886 2 12.0129 2 12.1453V16.1457C2 16.4233 2.22278 16.6449 2.49913 16.6449H5.30035C5.57155 17.8122 6.0317 18.9274 6.66261 19.9463L4.68556 21.9234C4.63918 21.9697 4.60239 22.0248 4.57729 22.0854C4.55219 22.146 4.53927 22.2109 4.53927 22.2765C4.53927 22.3421 4.55219 22.407 4.57729 22.4676C4.60239 22.5282 4.63918 22.5832 4.68556 22.6296L7.516 25.4599C7.71078 25.6559 8.0273 25.6559 8.22209 25.4599L10.2028 23.4793C11.2199 24.1114 12.3335 24.5731 13.4995 24.8463V27.6464C13.4995 27.9228 13.7235 28.1456 13.9998 28.1456H18.0002C18.0657 28.1456 18.1306 28.1326 18.1912 28.1075C18.2517 28.0825 18.3068 28.0457 18.3531 27.9994C18.3995 27.953 18.4362 27.8979 18.4613 27.8374C18.4864 27.7768 18.4993 27.712 18.4993 27.6464V24.8452C19.6666 24.5743 20.7818 24.1145 21.8009 23.4841L23.7779 25.4599C23.9727 25.6559 24.2892 25.6559 24.484 25.4599L27.3144 22.6296C27.3608 22.5832 27.3976 22.5282 27.4227 22.4676C27.4478 22.407 27.4607 22.3421 27.4607 22.2765C27.4607 22.2109 27.4478 22.146 27.4227 22.0854C27.3976 22.0248 27.3608 21.9697 27.3144 21.9234L25.3337 19.9428C25.9659 18.9256 26.4276 17.812 26.7009 16.646H29.5009C29.5665 16.646 29.6315 16.633 29.6922 16.6079C29.7528 16.5827 29.8079 16.5459 29.8542 16.4994C29.9006 16.4529 29.9373 16.3978 29.9624 16.3371C29.9874 16.2764 30.0002 16.2113 30 16.1457V12.1453C30 12.0129 29.9474 11.886 29.8538 11.7924C29.7602 11.6988 29.6332 11.6462 29.5009 11.6462H26.6996C26.4284 10.4788 25.9683 9.36366 25.3374 8.34469L27.3144 6.36881C27.361 6.32244 27.3979 6.26737 27.4232 6.20668C27.4484 6.14599 27.4613 6.08084 27.4613 6.01513C27.4613 5.94941 27.4484 5.88441 27.4232 5.82372C27.3979 5.76303 27.361 5.70782 27.3144 5.66144L24.484 2.83107C24.4376 2.78469 24.3826 2.74783 24.322 2.72273C24.2615 2.69763 24.1965 2.68484 24.131 2.68484C24.0654 2.68484 24.0005 2.69763 23.9399 2.72273C23.8793 2.74783 23.8243 2.78469 23.7779 2.83107L21.7972 4.8117C20.7801 4.17958 19.6665 3.71789 18.5005 3.44466V0.645869C18.5005 0.580219 18.4876 0.515174 18.4624 0.454537C18.4373 0.3939 18.4004 0.338845 18.3539 0.29248C18.3074 0.246116 18.2523 0.209381 18.1916 0.184369C18.1309 0.159357 18.0658 0.146537 18.0002 0.146697L13.9998 0.145508Z" fill="#60C5B8"/>
<path d="M16 5.01486C13.7399 5.01486 11.5724 5.91273 9.97423 7.51087C8.3761 9.10901 7.47827 11.2765 7.47827 13.5366C7.47999 13.7805 7.49217 14.0242 7.51479 14.267C7.88245 19.7806 12.3101 21.071 12.3101 24.6075H13.2804C13.0167 24.6672 12.7811 24.8143 12.6118 25.025C12.4424 25.2356 12.3494 25.4975 12.3478 25.7677V30.6373C12.3478 31.3117 12.8908 31.8547 13.5652 31.8547H18.4348C19.1092 31.8547 19.6522 31.3117 19.6522 30.6373V25.7677C19.6506 25.4975 19.5576 25.2356 19.3883 25.025C19.2189 24.8143 18.9833 24.6672 18.7197 24.6075H19.6899C19.6899 21.0966 24.0543 19.7988 24.4791 14.3875C24.5076 14.1044 24.5218 13.82 24.5217 13.5354C24.5217 11.2753 23.6239 9.10782 22.0258 7.50968C20.4277 5.91154 18.2601 5.01486 16 5.01486Z" fill="#FCD062"/>
<path d="M12.3479 24.6074V30.6372C12.3479 31.3116 12.8909 31.8546 13.5653 31.8546H18.4349C19.1093 31.8546 19.6522 31.3116 19.6522 30.6372V24.6074H12.3479Z" fill="#576D7E"/>
<path d="M11.749 25.1592H20.2513M11.749 27.594H20.2513M11.749 30.0287H20.2513" stroke="#2B4255" stroke-linecap="round" stroke-linejoin="round"/>
</svg>

<svg width="32" height="32" fill="none" xmlns="http://www.w3.org/2000/svg"><path d="M14 .146a.5.5 0 0 0-.5.5v2.8a11 11 0 0 0-3.3 1.362L8.221 2.831a.5.5 0 0 0-.706 0l-2.83 2.83a.5.5 0 0 0 0 .707l1.98 1.98A11 11 0 0 0 5.3 11.646H2.5a.5.5 0 0 0-.499.5v4c0 .277.223.499.5.499h2.8a11 11 0 0 0 1.363 3.301l-1.977 1.977a.498.498 0 0 0 0 .707l2.83 2.83a.497.497 0 0 0 .706 0l1.98-1.98a11 11 0 0 0 3.297 1.366v2.8a.5.5 0 0 0 .5.5h4a.5.5 0 0 0 .5-.5v-2.8a11.029 11.029 0 0 0 3.3-1.362l1.978 1.976a.497.497 0 0 0 .706 0l2.83-2.83a.5.5 0 0 0 0-.707l-1.98-1.98a11.002 11.002 0 0 0 1.367-3.297h2.8a.5.5 0 0 0 .499-.5v-4a.499.499 0 0 0-.5-.5h-2.8a11 11 0 0 0-1.363-3.301l1.977-1.976a.5.5 0 0 0 0-.708l-2.83-2.83a.5.5 0 0 0-.706 0l-1.98 1.98A11 11 0 0 0 18.5 3.446v-2.8a.499.499 0 0 0-.5-.498l-4-.002Z" fill="#60C5B8"/><path d="M16 5.015a8.522 8.522 0 0 0-8.522 8.522c.002.243.014.487.037.73.367 5.514 4.795 6.804 4.795 10.34h.97a1.196 1.196 0 0 0-.932 1.16v4.87c0 .675.543 1.218 1.217 1.218h4.87c.674 0 1.217-.543 1.217-1.218v-4.87a1.197 1.197 0 0 0-.932-1.16h.97c0-3.51 4.364-4.808 4.79-10.22A8.522 8.522 0 0 0 16 5.014Z" fill="#FCD062"/><path d="M12.348 24.607v6.03c0 .675.543 1.218 1.217 1.218h4.87c.674 0 1.217-.543 1.217-1.218v-6.03h-7.304Z" fill="#576D7E"/><path d="M11.749 25.16h8.502m-8.502 2.434h8.502m-8.502 2.435h8.502" stroke="#2B4255" stroke-linecap="round" stroke-linejoin="round"/></svg>
